icons/op-headline2-24.svg

<svg width="24" height="24" viewBox="0 0 24 24" fill="none" xmlns="http://www.w3.org/2000/svg">
<path d="M4 17V7.12903H5.28125V11.5161H10.4375V7.12903H11.7188V17H10.4375V12.4839H5.28125V17H4ZM13.625 17V16.5806C13.625 16.4839 13.625 16.3871 13.6875 16.3226C13.7188 16.2258 13.75 16.129 13.8438 16.0645L16.9062 12.871C17.1562 12.6129 17.375 12.3548 17.5938 12.0968C17.8125 11.871 17.9688 11.6129 18.125 11.3548C18.2812 11.129 18.4062 10.871 18.4688 10.6129C18.5625 10.3548 18.5938 10.0968 18.5938 9.80645C18.5938 9.51613 18.5312 9.25806 18.4375 9.03226C18.375 8.80645 18.25 8.64516 18.0938 8.48387C17.9375 8.35484 17.75 8.25806 17.5312 8.16129C17.3438 8.09677 17.0938 8.06452 16.875 8.06452C16.625 8.06452 16.4062 8.09677 16.1875 8.19355C16 8.25806 15.8125 8.35484 15.6562 8.48387C15.5 8.6129 15.375 8.77419 15.25 8.93548C15.1562 9.12903 15.0625 9.32258 15.0312 9.54839C15 9.67742 14.9375 9.77419 14.875 9.83871C14.8125 9.87097 14.7188 9.90323 14.5938 9.90323H14.4375L13.8125 9.80645C13.875 9.35484 14 8.93548 14.1562 8.6129C14.3438 8.25806 14.5625 7.96774 14.8438 7.74194C15.125 7.48387 15.4375 7.32258 15.7812 7.19355C16.1562 7.06452 16.5312 7 16.9375 7C17.3438 7 17.7188 7.06452 18.0625 7.19355C18.4062 7.32258 18.7188 7.51613 18.9688 7.74194C19.25 7.96774 19.4375 8.25806 19.5938 8.6129C19.75 8.93548 19.8125 9.32258 19.8125 9.77419C19.8125 10.129 19.75 10.4839 19.6562 10.7742C19.5625 11.0968 19.4062 11.3871 19.2188 11.6774C19.0312 11.9677 18.8125 12.2581 18.5938 12.5161C18.3438 12.7742 18.0938 13.0645 17.8438 13.3226L15.3125 16C15.5 15.9677 15.6875 15.9032 15.8438 15.871C16.0312 15.8387 16.2188 15.8387 16.375 15.8387H19.5938C19.7188 15.8387 19.8125 15.871 19.875 15.9355C19.9688 16.0323 20 16.129 20 16.2581V17H13.625Z" fill="black"/>
</svg>

<svg xmlns="http://www.w3.org/2000/svg" width="24" height="24" viewBox="0 0 24 24"><path d="M4 17V7.129h1.281v4.387h5.157V7.129h1.281V17h-1.281v-4.516H5.281V17H4Zm9.625 0v-.419c0-.097 0-.194.063-.258.031-.097.062-.194.156-.259l3.062-3.193c.25-.258.469-.516.688-.774.218-.226.375-.484.531-.742.156-.226.281-.484.344-.742a2.31 2.31 0 0 0 .125-.807c0-.29-.063-.548-.156-.774-.063-.226-.188-.387-.344-.548a2.382 2.382 0 0 0-.563-.323 2.167 2.167 0 0 0-.656-.096c-.25 0-.469.032-.687.129a1.704 1.704 0 0 0-.532.29 2.77 2.77 0 0 0-.406.451c-.094.194-.188.388-.219.613a.627.627 0 0 1-.156.291.613.613 0 0 1-.281.064h-.156l-.626-.097c.063-.451.188-.871.344-1.193.188-.355.406-.645.688-.871.281-.258.594-.419.937-.548.375-.129.75-.194 1.157-.194.406 0 .781.065 1.124.194.344.129.657.322.907.548.281.226.469.516.625.871.156.322.218.71.218 1.161a3.438 3.438 0 0 1-.593 1.903 8.343 8.343 0 0 1-.625.839c-.25.258-.5.549-.75.807L15.312 16c.188-.032.376-.097.532-.129.187-.032.375-.032.531-.032h3.219c.125 0 .218.032.281.096a.422.422 0 0 1 .125.323V17h-6.375Z"/></svg>
